X: 18145
T: Humours Of Clare, The
R: jig
M: 6/8
K: Dmajor
DDD FDF|EGE GFE|DDD FDF|AFA BGE|
DDD FDF|EGE GFE|AFA BGB|{B/c/d/}d2B AFD:|
|:AAA FDF|EGE GFE|AAA FDF|AFA BGE|
AAA FDF|EGE GFE|AFA BGB|{B/c/}d2B AFD:|
|:ddd fdf|ege gfe|ddd fdf|afa bge|
ddd fdf|ege gfe|AFA BGB|{B/c/}d2B AFD:|
|:dAG FDF|GBG GFE|dAG FDF|AFA BGE|
dAG FDF|EGE GFE|AFA BGB|{B/c/}d2B AFD:|

